client/src/assets/images/icon-treatment-gray.svg

<svg fill="none" height="36" viewBox="0 0 62 36" width="62" xmlns="http://www.w3.org/2000/svg"><g fill="#808080"><path d="m61.8999 15.8588c-.3881-1.4507-1.7955-2.4638-3.422-2.4638-.5769 0-1.1422.1292-1.6806.3835-2.0802.9806-9.6946 4.5528-12.8502 5.95.002-.0575.0088-.1143.0088-.1725l-.0703.0007c-.2983-1.7137-1.7868-3.0244-3.5851-3.0244h-7.0902c-2.0187 0-3.8461-.562-5.7796-1.1564-2.0417-.6276-4.1518-1.2769-6.5965-1.2769-4.0862 0-6.0522 1.0097-8.7736 2.4076-1.1253.5776-2.38797 1.2241-3.99416 1.9018v-1.8754h-7.300571v4.3033 14.7222.4416h7.299891v-2.6734c3.60054-1.007 7.73614-1.5602 12.16174-1.5852l.702-.0014c4.4798 0 6.9239.2604 10.0571 1.0733 1.7449.4531 3.4694.2874 5.3137-.5133 6.2976-2.7356 16.7057-8.1872 22.7383-11.6701 3.236-1.8672 3.0784-3.959 2.8613-4.7712zm-55.05079 18.924h-4.86659v-17.0338h4.86659zm51.58209-15.2071c-6.0041 3.4659-16.3567 8.8891-22.6145 11.6078-1.592.6905-3.0433.8339-4.5237.4518-3.2475-.842-5.7654-1.1125-10.3628-1.1125l-.7081.0013c-4.3972.0251-8.5246.5634-12.15634 1.542v-12.341c1.8686-.7635 3.29354-1.4919 4.55014-2.1371 2.6652-1.3688 4.4263-2.273 8.2176-2.273 2.2622 0 4.2836.6222 6.2394 1.2234 1.9342.5945 3.9354 1.2099 6.1374 1.2099h7.0902c1.2444 0 2.2616.9414 2.4056 2.1472-.1637 1.5237-1.4418 2.7201-3.0095 2.7201h-17.0344v1.2166h17.0344c1.7726 0 3.2942-1.0888 3.934-2.6402 2.7856-1.1774 13.5772-6.2618 13.6861-6.3132.374-.1772.7649-.2665 1.1612-.2665 1.0591 0 2.0045.6567 2.2467 1.5609.307 1.1443-.5296 2.384-2.2934 3.4025z"/><path d="m33.4877 0v11.5771c-2.7747-.4784-4.9752-2.87039-4.9752-5.83641 0-2.87035 2.2005-5.357977 4.9752-5.74069z"/><path d="m40.3764 5.74069c0 2.96602-2.1049 5.35801-4.9753 5.83641v-11.5771c2.7747.382713 4.9753 2.87034 4.9753 5.74069z"/><path d="m44.7777 7.46289 4.0185 4.01851-3.1574 3.1574c-1.1482 1.1481-2.966 1.1481-4.0185 0-1.1481-1.1482-1.0525-2.9661 0-4.0185z"/><path d="m53.293 6.98457-3.1573 3.15733-4.0185-4.01844 3.1574-3.15738c1.1481-1.14813 2.8703-1.14813 4.0184 0 1.0525 1.05246 1.1482 2.87035 0 4.01849z"/></g></svg>

<svg width="62" height="36" viewBox="0 0 62 36" fill="none" xmlns="http://www.w3.org/2000/svg">
<path d="M61.8999 15.8588C61.5118 14.4081 60.1044 13.395 58.4779 13.395C57.901 13.395 57.3357 13.5242 56.7973 13.7785C54.7171 14.7591 47.1027 18.3313 43.9471 19.7285C43.9491 19.671 43.9559 19.6142 43.9559 19.556L43.8856 19.5567C43.5873 17.843 42.0988 16.5323 40.3005 16.5323H33.2103C31.1916 16.5323 29.3642 15.9703 27.4307 15.3759C25.389 14.7483 23.2789 14.099 20.8342 14.099C16.748 14.099 14.782 15.1087 12.0606 16.5066C10.9353 17.0842 9.67263 17.7307 8.06644 18.4084V16.533H0.765869V20.8363V35.5585V36.0001H8.06576V33.3267C11.6663 32.3197 15.8019 31.7665 20.2275 31.7415L20.9295 31.7401C25.4093 31.7401 27.8534 32.0005 30.9866 32.8134C32.7315 33.2665 34.456 33.1008 36.3003 32.3001C42.5979 29.5645 53.006 24.1129 59.0386 20.63C62.2746 18.7628 62.117 16.671 61.8999 15.8588ZM6.84911 34.7828H1.98252V17.749H6.84911V34.7828ZM58.4312 19.5757C52.4271 23.0416 42.0745 28.4648 35.8167 31.1835C34.2247 31.874 32.7734 32.0174 31.293 31.6353C28.0455 30.7933 25.5276 30.5228 20.9302 30.5228L20.2221 30.5241C15.8249 30.5492 11.6975 31.0875 8.06576 32.0661V19.7251C9.93436 18.9616 11.3593 18.2332 12.6159 17.588C15.2811 16.2192 17.0422 15.315 20.8335 15.315C23.0957 15.315 25.1171 15.9372 27.0729 16.5384C29.0071 17.1329 31.0083 17.7483 33.2103 17.7483H40.3005C41.5449 17.7483 42.5621 18.6897 42.7061 19.8955C42.5424 21.4192 41.2643 22.6156 39.6966 22.6156H22.6622V23.8322H39.6966C41.4692 23.8322 42.9908 22.7434 43.6306 21.192C46.4162 20.0146 57.2078 14.9302 57.3167 14.8788C57.6907 14.7016 58.0816 14.6123 58.4779 14.6123C59.537 14.6123 60.4824 15.269 60.7246 16.1732C61.0316 17.3175 60.195 18.5572 58.4312 19.5757Z" fill="#808080"/>
<path d="M33.4877 0V11.5771C30.713 11.0987 28.5125 8.70671 28.5125 5.74069C28.5125 2.87034 30.713 0.382713 33.4877 0Z" fill="#808080"/>
<path d="M40.3764 5.74069C40.3764 8.70671 38.2715 11.0987 35.4011 11.5771V0C38.1758 0.382713 40.3764 2.87034 40.3764 5.74069Z" fill="#808080"/>
<path d="M44.7777 7.46289L48.7962 11.4814L45.6388 14.6388C44.4906 15.7869 42.6728 15.7869 41.6203 14.6388C40.4722 13.4906 40.5678 11.6727 41.6203 10.6203L44.7777 7.46289Z" fill="#808080"/>
<path d="M53.293 6.98457L50.1357 10.1419L46.1172 6.12346L49.2746 2.96608C50.4227 1.81795 52.1449 1.81795 53.293 2.96608C54.3455 4.01854 54.4412 5.83643 53.293 6.98457Z" fill="#808080"/>
</svg>
